src/assets/img/logo.svg

<svg fill="none" height="18" viewBox="0 0 46 18" width="46" xmlns="http://www.w3.org/2000/svg"><path d="m1.37305 4.49023.03515 1.62598c.35742-.58594.80274-1.03125 1.33594-1.33594.5332-.31054 1.12207-.46582 1.7666-.46582 1.01953 0 1.77832.28711 2.27637.86133s.75 1.43555.75586 2.58399v6.24023h-1.0459v-6.24902c-.00586-.84961-.1875-1.48243-.54492-1.89844-.35156-.41602-.91699-.62402-1.69629-.62402-.65039 0-1.22754.20507-1.73145.61523-.49804.4043-.86718.95215-1.10742 1.64355v6.5127h-1.045896v-9.50977zm12.57715 9.68557c-.8086 0-1.541-.1992-2.1973-.5977-.6504-.3984-1.1572-.9521-1.5205-1.6611-.36326-.7149-.5449-1.5147-.5449-2.39942v-.37793c0-.91406.17578-1.73731.5273-2.46973.3575-.73242.8526-1.30664 1.4854-1.72265.6328-.42188 1.3184-.63282 2.0566-.63282 1.1543 0 2.0684.39551 2.7422 1.18653.6797.78515 1.0196 1.86035 1.0196 3.22558v.58887h-6.7852v.20215c0 1.07812.3076 1.97752.9228 2.69822.6211.7149 1.4004 1.0723 2.3379 1.0723.5625 0 1.0577-.1026 1.4854-.3076.4336-.2051.8262-.5332 1.1777-.9844l.6592.501c-.7734 1.1191-1.8955 1.6787-3.3662 1.6787zm-.1934-8.96486c-.791 0-1.4589.29004-2.0039.87011-.539.58008-.8672 1.35938-.9843 2.3379h5.7041v-.11426c-.0293-.91407-.2901-1.65821-.7823-2.23242-.4922-.57422-1.1367-.86133-1.9336-.86133zm8.7012 7.27736 2.7774-7.99807h1.1337l-4.0605 11.12697-.2109.4922c-.5215 1.1543-1.3272 1.7314-2.417 1.7314-.252 0-.5215-.041-.8086-.123l-.0088-.8701.5449.0527c.5156 0 .9316-.1289 1.248-.3867.3223-.252.5948-.6885.8174-1.3096l.4659-1.2832-3.586-9.43067h1.1514zm5.001-3.33107c0-1.47657.3281-2.65137.9844-3.52442.6621-.8789 1.5586-1.31836 2.6894-1.31836 1.2832 0 2.2617.50684 2.9356 1.52051v-5.33496h1.0459v13.5h-.9844l-.044-1.2656c-.6738.9609-1.664 1.4414-2.9707 1.4414-1.0957 0-1.9804-.4395-2.6543-1.3184-.6679-.8847-1.0019-2.0771-1.0019-3.57713zm1.0635.18457c0 1.2129.2431 2.1709.7295 2.874.4863.6973 1.1718 1.0459 2.0566 1.0459 1.2949 0 2.2148-.5713 2.7598-1.7138v-4.46489c-.545-1.23633-1.459-1.85449-2.7422-1.85449-.8848 0-1.5733.34863-2.0655 1.04589-.4921.69141-.7382 1.71387-.7382 3.06739zm15.3632 4.6582c-.1054-.2988-.1728-.7412-.2021-1.3271-.3691.4804-.8408.8525-1.415 1.1162-.5684.2578-1.1719.3867-1.8106.3867-.9141 0-1.6553-.2549-2.2236-.7647-.5625-.5097-.8438-1.1543-.8438-1.9336 0-.9257.3838-1.65816 1.1514-2.19723.7734-.53906 1.8486-.80859 3.2256-.80859h1.9072v-1.08106c0-.67968-.2109-1.21289-.6328-1.5996-.416-.39258-1.0254-.58887-1.8281-.58887-.7325 0-1.3389.1875-1.8194.5625-.4804.375-.7207.82617-.7207 1.35351l-1.0547-.00878c0-.75586.3516-1.40918 1.0547-1.95997.7032-.55664 1.5674-.83496 2.5928-.83496 1.0605 0 1.8955.2666 2.5049.79981.6152.52734.9316 1.26562.9492 2.21484v4.5c0 .9199.0967 1.6084.29 2.0654v.1055zm-3.3046-.7559c.7031 0 1.33-.1699 1.8808-.5097.5567-.3399.961-.794 1.2129-1.3623v-2.09183h-1.8809c-1.0488.01172-1.8691.20508-2.4609.58008-.5918.36915-.8877.87895-.8877 1.52925 0 .5333.1963.9756.5889 1.3272.3984.3516.914.5273 1.5469.5273z" fill="#0abf53"/></svg>

<svg width="46" height="18" viewBox="0 0 46 18" fill="none" xmlns="http://www.w3.org/2000/svg">
  <path d="M1.37305 4.49023L1.4082 6.11621C1.76562 5.53027 2.21094 5.08496 2.74414 4.78027C3.27734 4.46973 3.86621 4.31445 4.51074 4.31445C5.53027 4.31445 6.28906 4.60156 6.78711 5.17578C7.28516 5.75 7.53711 6.61133 7.54297 7.75977V14H6.49707V7.75098C6.49121 6.90137 6.30957 6.26855 5.95215 5.85254C5.60059 5.43652 5.03516 5.22852 4.25586 5.22852C3.60547 5.22852 3.02832 5.43359 2.52441 5.84375C2.02637 6.24805 1.65723 6.7959 1.41699 7.4873V14H0.371094V4.49023H1.37305ZM13.9502 14.1758C13.1416 14.1758 12.4092 13.9766 11.7529 13.5781C11.1025 13.1797 10.5957 12.626 10.2324 11.917C9.86914 11.2021 9.6875 10.4023 9.6875 9.51758V9.13965C9.6875 8.22559 9.86328 7.40234 10.2148 6.66992C10.5723 5.9375 11.0674 5.36328 11.7002 4.94727C12.333 4.52539 13.0186 4.31445 13.7568 4.31445C14.9111 4.31445 15.8252 4.70996 16.499 5.50098C17.1787 6.28613 17.5186 7.36133 17.5186 8.72656V9.31543H10.7334V9.51758C10.7334 10.5957 11.041 11.4951 11.6562 12.2158C12.2773 12.9307 13.0566 13.2881 13.9941 13.2881C14.5566 13.2881 15.0518 13.1855 15.4795 12.9805C15.9131 12.7754 16.3057 12.4473 16.6572 11.9961L17.3164 12.4971C16.543 13.6162 15.4209 14.1758 13.9502 14.1758ZM13.7568 5.21094C12.9658 5.21094 12.2979 5.50098 11.7529 6.08105C11.2139 6.66113 10.8857 7.44043 10.7686 8.41895H16.4727V8.30469C16.4434 7.39062 16.1826 6.64648 15.6904 6.07227C15.1982 5.49805 14.5537 5.21094 13.7568 5.21094ZM22.458 12.4883L25.2354 4.49023H26.3691L22.3086 15.6172L22.0977 16.1094C21.5762 17.2637 20.7705 17.8408 19.6807 17.8408C19.4287 17.8408 19.1592 17.7998 18.8721 17.7178L18.8633 16.8477L19.4082 16.9004C19.9238 16.9004 20.3398 16.7715 20.6562 16.5137C20.9785 16.2617 21.251 15.8252 21.4736 15.2041L21.9395 13.9209L18.3535 4.49023H19.5049L22.458 12.4883ZM27.459 9.15723C27.459 7.68066 27.7871 6.50586 28.4434 5.63281C29.1055 4.75391 30.002 4.31445 31.1328 4.31445C32.416 4.31445 33.3945 4.82129 34.0684 5.83496V0.5H35.1143V14H34.1299L34.0859 12.7344C33.4121 13.6953 32.4219 14.1758 31.1152 14.1758C30.0195 14.1758 29.1348 13.7363 28.4609 12.8574C27.793 11.9727 27.459 10.7803 27.459 9.28027V9.15723ZM28.5225 9.3418C28.5225 10.5547 28.7656 11.5127 29.252 12.2158C29.7383 12.9131 30.4238 13.2617 31.3086 13.2617C32.6035 13.2617 33.5234 12.6904 34.0684 11.5479V7.08301C33.5234 5.84668 32.6094 5.22852 31.3262 5.22852C30.4414 5.22852 29.7529 5.57715 29.2607 6.27441C28.7686 6.96582 28.5225 7.98828 28.5225 9.3418ZM43.8857 14C43.7803 13.7012 43.7129 13.2588 43.6836 12.6729C43.3145 13.1533 42.8428 13.5254 42.2686 13.7891C41.7002 14.0469 41.0967 14.1758 40.458 14.1758C39.5439 14.1758 38.8027 13.9209 38.2344 13.4111C37.6719 12.9014 37.3906 12.2568 37.3906 11.4775C37.3906 10.5518 37.7744 9.81934 38.542 9.28027C39.3154 8.74121 40.3906 8.47168 41.7676 8.47168H43.6748V7.39062C43.6748 6.71094 43.4639 6.17773 43.042 5.79102C42.626 5.39844 42.0166 5.20215 41.2139 5.20215C40.4814 5.20215 39.875 5.38965 39.3945 5.76465C38.9141 6.13965 38.6738 6.59082 38.6738 7.11816L37.6191 7.10938C37.6191 6.35352 37.9707 5.7002 38.6738 5.14941C39.377 4.59277 40.2412 4.31445 41.2666 4.31445C42.3271 4.31445 43.1621 4.58105 43.7715 5.11426C44.3867 5.6416 44.7031 6.37988 44.7207 7.3291V11.8291C44.7207 12.749 44.8174 13.4375 45.0107 13.8945V14H43.8857ZM40.5811 13.2441C41.2842 13.2441 41.9111 13.0742 42.4619 12.7344C43.0186 12.3945 43.4229 11.9404 43.6748 11.3721V9.28027H41.7939C40.7451 9.29199 39.9248 9.48535 39.333 9.86035C38.7412 10.2295 38.4453 10.7393 38.4453 11.3896C38.4453 11.9229 38.6416 12.3652 39.0342 12.7168C39.4326 13.0684 39.9482 13.2441 40.5811 13.2441Z" fill="#0ABF53"/>
</svg>
